X:1
T:Title
%%score [ 1 2 3 ]
L:1/8
Q:1/4=120
M:2/2
K:C
V:1 treble nm="S."
V:2 treble-8 nm="T."
V:3 bass nm="B."
V:1
 c3 B A2 c2 | B2 A2 GABc | A2 G2 z2 GA | BG c2 B4 | z2 GA Bc A2 | G2 z2 GABc | d2 c4 B2 | %7
w: Meys- ken wil di|vech- ten te- ghen de- se|knech- ten, te- ghen|de­se * knech- ten,|te- ghen de- se knech-|ten, te- ghen de- se|knech- * *|
 c2 A3 G G2- | G2 ^F2 G4 | z8 | z2 c2 d2 e2 | f2 ed c4 | z2 G2 A2 B2 | cc B2 G2 c2- | c2 B2 c2 G2 | %15
w: |* * ten.||So doet u|hem- de- ken aen,|so doet u|hem- de- ken aen, *|* * * doet|
 AAGF E2 D2 | FFED E2 G2 | A2 G2 GG ^F2 | G4 z2 G2 | GGFF G2 E2 | EEDD E2 GG | GAGF G2 GG | %22
w: aen, doet aen, doet aen, doet|aen, doet aen, doet aen, so|doet u hem- de- ken|aen. En|hebt voor my gheen vaer, en|hebt voor my gheen vaer int se-|creet oft o- pen- baer, int se-|
 ccBA G2 GG | GAB c2 B/A/ B2 | c2 C2 E2 EF | G2 G2 D2 D2 | F2 FG A2 A2 | E4 z2 G2 | B2 Bc d2 d2 | %29
w: creet oft o- pen- baer, int se-|creet oft o- pen- * * *|baer. Non fort- ze voor|ee- nen man, non|fort- ze voor ee- nen|man, non|fort- ze voor ee- nen|
 A2 A2 c2 cd | edcB c2 c2 | B8 | G2 GF ED C2 | c2 cB AG FE | D2 d2 dcBA | G2 z2 G2 GF | %36
w: man, non fort- ze voor|ee- * * * * nen|man.|Compt aen, compt aen, compt aen,|compt aen mijn lie- ver ian, *|* compt aen mijn lie- ver|ian, compt aen mijn|
 ED C2 z2 A2 | A2 B2 A2 G2- | G2 ^F2 !fermata!G4 |] %39
w: lie- ver ian. Non|fort- ze voor ee-|* nen man.|
V:2
 z4 f3 e | d2 f2 e2 d2 | efge f2 e2 | z2 cd efdd | cdef d2 c2 | GABG c2 B2 | z2 cd ef d2 | %7
w: Meys- ken|wil di vech- ten|te- ghen de- se knech- ten,|meys- ken wil di vech- ten-|te- ghen de- se knech- ten,||te- ghen de- se knech-|
w: |||||te- ghen de- se knech- ten||
 c2 d2 z2 GA | Bc A2 G4 | z2 G2 A2 B2 | cB A2 G4 | z2 d2 e2 f2 | gf e2 d2 g2 | f2 d2 e2 dc | %14
w: * ten, * *||||so doet u|hem- de- ken aen, so|doet u hem- de- ken|
w: * * te- ghen|de- se knech- ten.|So doet u|hem- de- ken aen,||||
 d2 d2 c4- | c4 z2 B2 | ccBA B2 c2 | c2 B2 cc A2 | G2 c2 ccBB | c2 A2 GGcc | B4 z2 dd | %21
w: aen, doet aen,|* doet|aen, doet aen, doet aen, so|doet u hem- de- ken|aen. En hebt voor my gheen|vaer, * * * * *|* int se-|
w: |||||* en hebt voor my gheen|vaer * *|
 eedc d2 dd | efgf e2 dd | e2 dc d2 d2 | c8 | z2 G2 B2 Bc | d2 d2 A2 A2 | c2 cd e2 e2 | d4 z2 d2 | %29
w: creet oft o- pen- baer, int se-|creet oft o- pen- baer, int se-|creet oft * o- pen-|baer.|Non fort- ze voor|ee- nen man, non|fort- ze voor ee- nen|man, non|
w: ||||||||
 f2 fg a2 a2 | ef g4 f2 | g4 d2 dc | BA G2 g2 gf | ed c2 z2 d2 | dcBA G2 d2 | dcBA G2 G2 | %36
w: fort- ze voor ee- nen|man. * * *|* Compt aen mijn|lie- ver ian, compt aen mijn|lie- ver ian, compt|aen mijn lie- ver ian, compt|aen mijn lie- ver ian. Non|
w: |||||||
 c4 A3 B | c2 B2 cBAG | A4 !fermata!G4 |] %39
w: fort- ze voor|ee- * * * * *|nen man.|
w: |||
V:3
 z8 | z8 | C3 B, A,2 C2 | B,2 A,2 G,A,B,C | A,2 G,2 z2 C,D, | E,F, D,2 C,2 G,A, | B,C A,2 G,4 | %7
w: ||Meys- ken wil di|vech- ten te- ghen de- se|knech- ten, te- ghen|de- se knech- ten, te- ghen|de- se knech- ten,|
 z2 D,E, F,G, E,2 | D,4 z2 C,2 | D,2 E,2 F,E, D,2 | C,4 z2 G,2 | A,2 B,2 CB, A,2 | G,4 z2 G,2 | %13
w: te- ghen de- se knech-|ten. So|doet u hem- de- ken|aen, so|doet u hem- de- ken|aen, so|
 A,2 B,2 CB, A,2 | G,4 z2 C,2 | F,F,E,F, C,2 G,2 | A,A,G,F,/F,/ E,2 C,2 | F,2 G,2 C,C, D,2 | %18
w: doet u hem- de- ken|aen, doet|aen, doet aen, doet aen, en|doet u hem- de- ken aen, en|doet u hem- de- ken|
 G,2 C,2 C,C,G,G, | C,2 D,2 E,E,C,C, | G,4 z2 G,G, | CCB,A, G,4 | z4 z2 G,G, | CCB,A, G,4 | %24
w: aen. En hebt voor my gheen|vaer, en hebt voor my gheen|vaer int se-|creet oft o- pen- baer,|int se-|creet oft o- pen- baer.|
 C,4 z2 C,2 | E,2 E,F, G,2 G,2 | D,2 D,2 F,2 F,G, | A,2 A,2 G,4 | z2 G,2 B,2 B,C | D2 D2 A,2 C2 | %30
w: * Non|fort- ze voor ee- nen|man, non fort- ze voor|ee- nen man,|non fort- ze voor|ee- nen man, voor|
 CB,A,G, A,4 | G,4 z2 G,2 | G,F,E,D, C,2 C2 | CB,A,G, F,E, D,2 | D2 DC B,A, G,2 | z2 G,2 G,F,E,D, | %36
w: ee- * * * nen|man. Compt|aen mijn * lie­ver ian, compt|aen mijn lie- ver ian, * *|compt aen mijn lie- ver ian,|compt aen mijn lie- ver|
 C,2 C,2 F,4 | F,2 G,2 C,2 E,2 | D,4 !fermata!G,4 |] %39
w: ian. Non fort-|ze voor ee- *|nen man.|

